src/next/cmd/32/closedoc.svg

<svg enable-background="new 0 0 128 128" height="32" viewBox="0 0 32 32" width="32" xmlns="http://www.w3.org/2000/svg" xmlns:xlink="http://www.w3.org/1999/xlink"><filter id="a" color-interpolation-filters="sRGB" height="1.12" width="1.12" x="-.06" y="-.06"><feGaussianBlur stdDeviation="1.9753136"/></filter><radialGradient id="b" cx="-65.04158" cy="84.778641" gradientUnits="userSpaceOnUse" r="36.458652"><stop offset="0" stop-color="#e18a28"/><stop offset="1" stop-color="#9b0a0a" stop-opacity=".996078"/></radialGradient><filter id="c" color-interpolation-filters="sRGB" height="1.048" width="1.048" x="-.024" y="-.024"><feGaussianBlur stdDeviation=".72917305"/></filter><filter id="d" color-interpolation-filters="sRGB" height="1.096" width="1.096" x="-.048" y="-.048"><feGaussianBlur stdDeviation=".78129363"/></filter><linearGradient id="e" gradientTransform="matrix(.65842372 0 0 .5325216 222.71127 293.93821)" gradientUnits="userSpaceOnUse" x1="-67.976425" x2="-66.816696" y1="24.103317" y2="72.311111"><stop offset="0" stop-color="#fff"/><stop offset="1" stop-color="#fff" stop-opacity="0"/></linearGradient><filter id="f"><feGaussianBlur stdDeviation="1.0394514"/></filter><filter id="g"><feGaussianBlur stdDeviation=".50063244"/></filter><radialGradient id="h" cx="102" cy="112.3047" gradientUnits="userSpaceOnUse" r="139.5585"><stop offset="0" stop-color="#00537d"/><stop offset=".0151" stop-color="#186389"/><stop offset=".0558" stop-color="#558ca8"/><stop offset=".0964" stop-color="#89afc3"/><stop offset=".1357" stop-color="#b3ccd8"/><stop offset=".1737" stop-color="#d4e2e9"/><stop offset=".2099" stop-color="#ecf2f5"/><stop offset=".2435" stop-color="#fafcfd"/><stop offset=".2722" stop-color="#fff"/></radialGradient><radialGradient id="i" cx="102" cy="112.3047" gradientTransform="matrix(.9787234 0 0 .9818182 1.361705 1.163636)" gradientUnits="userSpaceOnUse" r="139.55859"><stop offset="0" stop-color="#535557"/><stop offset=".11366145" stop-color="#898a8c"/><stop offset=".20296688" stop-color="#ececec"/><stop offset=".2363" stop-color="#fafafa"/><stop offset=".2722" stop-color="#fff"/><stop offset=".5313" stop-color="#fafafa"/><stop offset=".8449" stop-color="#ebecec"/><stop offset="1" stop-color="#e1e2e3"/></radialGradient><linearGradient id="j" gradientUnits="userSpaceOnUse" x1="88.591797" x2="71.262016" y1="96.592697" y2="79.262917"><stop offset="0" stop-color="#fff"/><stop offset="1" stop-color="#555753"/></linearGradient><filter id="k"><feGaussianBlur stdDeviation=".40750996"/></filter><filter id="l"><feGaussianBlur stdDeviation=".90565481"/></filter><linearGradient id="m" gradientUnits="userSpaceOnUse" x1="85.219681" x2="61.336319" y1="93.219681" y2="69.336319"><stop offset="0"/><stop offset="1" stop-color="#393b38"/></linearGradient><filter id="n"><feGaussianBlur stdDeviation=".4901192"/></filter><linearGradient id="o" gradientUnits="userSpaceOnUse" x1="96" x2="88.000198" y1="104" y2="96.000198"><stop offset="0" stop-color="#888a85"/><stop offset=".0072" stop-color="#8c8e89"/><stop offset=".0673" stop-color="#abaca9"/><stop offset=".1347" stop-color="#c5c6c4"/><stop offset=".2115" stop-color="#dbdbda"/><stop offset=".3012" stop-color="#ebebeb"/><stop offset=".4122" stop-color="#f7f7f6"/><stop offset=".5679" stop-color="#fdfdfd"/><stop offset="1" stop-color="#fff"/></linearGradient><g transform="matrix(.25 0 0 .25 0 .00002475)"><path d="m23 9 .04082 112h61.13118c.53 0 1.039-.211 1.414-.586l32.828-32.828c.375-.375.586-.884.586-1.414v-77.172z" filter="url(#f)" opacity=".306849" transform="matrix(1.0416667 0 0 1.0357143 -9.958333 -3.321534)"/><path d="m24.919999 10.931136v108.137934l58.676001-.0001c.53 0 1.039-.211 1.414-.586l31.484-31.765936c.375-.375.586-.884.586-1.414v-74.371898z" filter="url(#g)" opacity=".89589" transform="matrix(1.0416667 0 0 1.0357143 -9.958333 -3.321534)"/><path d="m23 9.9655172.040816 111.0344828h61.131184c.53 0 1.039-.211 1.414-.586l32.828-32.828c.375-.375.586-.884.586-1.414v-76.2064828z" filter="url(#f)" opacity=".306849" transform="matrix(1.0416667 0 0 1.0357143 -9.958333 -3.321534)"/><path d="m16.000002 8v112h61.172c.53 0 1.039-.211 1.414-.586l32.827998-32.828c.375-.375.586-.884.586-1.414v-77.172z" fill="url(#h)"/><path d="m19.678725 10.7c-.539276 0-.978723.440836-.978723.981818l-.7 105.336362c0 .54197.439447.98182.978723.98182h57.913022c.257404 0 .509915-.10407.691957-.28767l32.129526-32.23113c.18303-.1836.28677-.435927.28677-.694145v-73.805237c0-.540982-.43847-.981818-.97872-.981818z" fill="url(#i)"/></g><g transform="matrix(.25 0 0 .25 .0000005 .00002475)"><path d="m111.414 86.586c.25-.25-26.379-1.586-31.414-1.586-1.654 0-3 1.346-3 3 0 5.035 1.336 31.664 1.586 31.414z" fill="url(#j)" filter="url(#k)" opacity=".1"/><path d="m111.414 86.586c.375-.375-21.97-.586-31.414-.586-1.103 0-2 .897-2 2 0 9.444.211 31.789.586 31.414z" filter="url(#l)" opacity=".2"/><path d="m111.414 86.586c.239-.239-21.607.414-31.414.414-.553 0-1 .447-1 1 0 9.807-.653 31.653-.414 31.414z" fill="url(#m)" filter="url(#n)" opacity=".1"/><path d="m78.586 119.414s11.914-9.914 17.414-15.414 15.414-17.414 15.414-17.414-21.164 1.414-31.414 1.414c0 10.25-1.414 31.414-1.414 31.414z" fill="url(#o)"/></g><g transform="matrix(.25 0 0 .25 -19.9071625 -59.218999)"><circle cx="-65.04158" cy="63.78297" fill="#858585" filter="url(#a)" opacity=".759" r="39.506271" transform="matrix(.65842372 0 0 .65842372 222.71127 293.75855)"/><circle cx="179.88635" cy="334.43793" fill="#844329" r="25.282183"/><circle cx="-65.04158" cy="61.78297" fill="url(#b)" filter="url(#c)" r="36.458652" transform="matrix(.65842372 0 0 .65842372 222.71127 293.75855)"/><g transform="matrix(.46557588 -.46557588 .46557588 .46557588 160.06463 296.97986)"><path d="m-24.261029 43.91386v15.625872h-15.625873v7.812937h15.625873v15.625872h7.812936v-15.625872h15.62587315v-7.812937h-15.62587315v-15.625872z" fill="#742424" filter="url(#d)" transform="matrix(1.2 0 0 1.2 4.070912 -12.585841)"/><path d="m-23.628113 38.076173v18.751046h-18.751048v9.375524h18.751048v18.751047h9.375523v-18.751047h18.751047v-9.375524h-18.751047v-18.751046z" fill="#fff"/></g><ellipse cx="179.88635" cy="326.83899" fill="url(#e)" rx="19.079889" ry="15.43148"/></g></svg>

<?xml version="1.0" encoding="UTF-8" standalone="no"?>
<svg
   xmlns:dc="http://purl.org/dc/elements/1.1/"
   xmlns:cc="http://creativecommons.org/ns#"
   xmlns:rdf="http://www.w3.org/1999/02/22-rdf-syntax-ns#"
   xmlns:svg="http://www.w3.org/2000/svg"
   xmlns="http://www.w3.org/2000/svg"
   xmlns:xlink="http://www.w3.org/1999/xlink"
   xmlns:sodipodi="http://sodipodi.sourceforge.net/DTD/sodipodi-0.dtd"
   xmlns:inkscape="http://www.inkscape.org/namespaces/inkscape"
   enable-background="new 0 0 128 128"
   height="32"
   viewBox="0 0 32 32"
   width="32"
   version="1.1"
   id="svg2022"
   sodipodi:docname="closedoc.svg"
   inkscape:version="0.92.4 (unknown)"
   inkscape:export-filename="/home/rizmut/Dokumen/Rizmut/Github/libreoffice-style-karasa-jaga/src/next/cmd/32/closedoc.png"
   inkscape:export-xdpi="96"
   inkscape:export-ydpi="96">
  <metadata
     id="metadata2028">
    <rdf:RDF>
      <cc:Work
         rdf:about="">
        <dc:format>image/svg+xml</dc:format>
        <dc:type
           rdf:resource="http://purl.org/dc/dcmitype/StillImage" />
        <dc:title />
      </cc:Work>
    </rdf:RDF>
  </metadata>
  <defs
     id="defs2026">
    <filter
       inkscape:collect="always"
       style="color-interpolation-filters:sRGB"
       id="filter16674"
       x="-0.059999999"
       width="1.12"
       y="-0.059999999"
       height="1.12">
      <feGaussianBlur
         inkscape:collect="always"
         stdDeviation="1.9753136"
         id="feGaussianBlur16676" />
    </filter>
    <radialGradient
       inkscape:collect="always"
       xlink:href="#linearGradient1598"
       id="radialGradient1600"
       cx="-65.04158"
       cy="84.778641"
       fx="-65.04158"
       fy="84.778641"
       r="36.458652"
       gradientUnits="userSpaceOnUse" />
    <linearGradient
       inkscape:collect="always"
       id="linearGradient1598">
      <stop
         style="stop-color:#e18a28;stop-opacity:1"
         offset="0"
         id="stop1594" />
      <stop
         style="stop-color:#9b0a0a;stop-opacity:0.99607843"
         offset="1"
         id="stop1596" />
    </linearGradient>
    <filter
       inkscape:collect="always"
       style="color-interpolation-filters:sRGB"
       id="filter1639"
       x="-0.024"
       width="1.048"
       y="-0.024"
       height="1.048">
      <feGaussianBlur
         inkscape:collect="always"
         stdDeviation="0.72917305"
         id="feGaussianBlur1641" />
    </filter>
    <filter
       inkscape:collect="always"
       style="color-interpolation-filters:sRGB"
       id="filter1627"
       x="-0.048"
       width="1.096"
       y="-0.048"
       height="1.096">
      <feGaussianBlur
         inkscape:collect="always"
         stdDeviation="0.78129363"
         id="feGaussianBlur1629" />
    </filter>
    <linearGradient
       inkscape:collect="always"
       xlink:href="#linearGradient3494"
       id="linearGradient1606"
       x1="-67.976425"
       y1="24.103317"
       x2="-66.816696"
       y2="72.311111"
       gradientUnits="userSpaceOnUse"
       gradientTransform="matrix(0.65842372,0,0,0.5325216,222.71127,293.93821)" />
    <linearGradient
       id="linearGradient3494">
      <stop
         style="stop-color:#ffffff;stop-opacity:1;"
         offset="0"
         id="stop3496" />
      <stop
         style="stop-color:#ffffff;stop-opacity:0;"
         offset="1"
         id="stop3498" />
    </linearGradient>
    <filter
       id="f-6">
      <feGaussianBlur
         stdDeviation="1.0394514"
         id="feGaussianBlur1137" />
    </filter>
    <filter
       id="g">
      <feGaussianBlur
         stdDeviation=".50063244"
         id="feGaussianBlur1140" />
    </filter>
    <filter
       id="filter1690">
      <feGaussianBlur
         stdDeviation="1.0394514"
         id="feGaussianBlur1688" />
    </filter>
    <radialGradient
       id="e-2"
       cx="102"
       cy="112.3047"
       gradientUnits="userSpaceOnUse"
       r="139.5585">
      <stop
         offset="0"
         stop-color="#00537d"
         id="stop1118" />
      <stop
         offset=".0151"
         stop-color="#186389"
         id="stop1120" />
      <stop
         offset=".0558"
         stop-color="#558ca8"
         id="stop1122" />
      <stop
         offset=".0964"
         stop-color="#89afc3"
         id="stop1124" />
      <stop
         offset=".1357"
         stop-color="#b3ccd8"
         id="stop1126" />
      <stop
         offset=".1737"
         stop-color="#d4e2e9"
         id="stop1128" />
      <stop
         offset=".2099"
         stop-color="#ecf2f5"
         id="stop1130" />
      <stop
         offset=".2435"
         stop-color="#fafcfd"
         id="stop1132" />
      <stop
         offset=".2722"
         stop-color="#fff"
         id="stop1134" />
    </radialGradient>
    <radialGradient
       id="d-9"
       cx="102"
       cy="112.3047"
       gradientTransform="matrix(0.9787234,0,0,0.9818182,1.361705,1.163636)"
       gradientUnits="userSpaceOnUse"
       r="139.55859">
      <stop
         offset="0"
         stop-color="#535557"
         id="stop1101" />
      <stop
         offset=".11366145"
         stop-color="#898a8c"
         id="stop1103" />
      <stop
         offset=".20296688"
         stop-color="#ececec"
         id="stop1105" />
      <stop
         offset=".2363"
         stop-color="#fafafa"
         id="stop1107" />
      <stop
         offset=".2722"
         stop-color="#fff"
         id="stop1109" />
      <stop
         offset=".5313"
         stop-color="#fafafa"
         id="stop1111" />
      <stop
         offset=".8449"
         stop-color="#ebecec"
         id="stop1113" />
      <stop
         offset="1"
         stop-color="#e1e2e3"
         id="stop1115" />
    </radialGradient>
    <linearGradient
       id="a-1"
       gradientUnits="userSpaceOnUse"
       x1="88.591797"
       x2="71.262016"
       y1="96.592697"
       y2="79.262917">
      <stop
         offset="0"
         stop-color="#fff"
         id="stop1072" />
      <stop
         offset="1"
         stop-color="#555753"
         id="stop1074" />
    </linearGradient>
    <filter
       id="h">
      <feGaussianBlur
         stdDeviation=".40750996"
         id="feGaussianBlur1143" />
    </filter>
    <filter
       id="j">
      <feGaussianBlur
         stdDeviation=".90565481"
         id="feGaussianBlur1149" />
    </filter>
    <linearGradient
       id="b-2"
       gradientUnits="userSpaceOnUse"
       x1="85.219681"
       x2="61.336319"
       y1="93.219681"
       y2="69.336319">
      <stop
         offset="0"
         id="stop1077" />
      <stop
         offset="1"
         stop-color="#393b38"
         id="stop1079" />
    </linearGradient>
    <filter
       id="i">
      <feGaussianBlur
         stdDeviation=".4901192"
         id="feGaussianBlur1146" />
    </filter>
    <linearGradient
       id="c-7"
       gradientUnits="userSpaceOnUse"
       x1="96"
       x2="88.000198"
       y1="104"
       y2="96.000198">
      <stop
         offset="0"
         stop-color="#888a85"
         id="stop1082" />
      <stop
         offset=".0072"
         stop-color="#8c8e89"
         id="stop1084" />
      <stop
         offset=".0673"
         stop-color="#abaca9"
         id="stop1086" />
      <stop
         offset=".1347"
         stop-color="#c5c6c4"
         id="stop1088" />
      <stop
         offset=".2115"
         stop-color="#dbdbda"
         id="stop1090" />
      <stop
         offset=".3012"
         stop-color="#ebebeb"
         id="stop1092" />
      <stop
         offset=".4122"
         stop-color="#f7f7f6"
         id="stop1094" />
      <stop
         offset=".5679"
         stop-color="#fdfdfd"
         id="stop1096" />
      <stop
         offset="1"
         stop-color="#fff"
         id="stop1098" />
    </linearGradient>
  </defs>
  <sodipodi:namedview
     pagecolor="#ffffff"
     bordercolor="#666666"
     borderopacity="1"
     objecttolerance="10"
     gridtolerance="10"
     guidetolerance="10"
     inkscape:pageopacity="0"
     inkscape:pageshadow="2"
     inkscape:window-width="1366"
     inkscape:window-height="696"
     id="namedview2024"
     showgrid="true"
     inkscape:zoom="84.49926"
     inkscape:cx="-0.52152062"
     inkscape:cy="29.677234"
     inkscape:window-x="0"
     inkscape:window-y="0"
     inkscape:window-maximized="1"
     inkscape:current-layer="g4872">
    <inkscape:grid
       type="xygrid"
       id="grid4847" />
  </sodipodi:namedview>
  <filter
     id="a">
    <feGaussianBlur
       stdDeviation="1.0394514"
       id="feGaussianBlur1956" />
  </filter>
  <filter
     id="b">
    <feGaussianBlur
       stdDeviation=".50063244"
       id="feGaussianBlur1959" />
  </filter>
  <linearGradient
     id="c"
     gradientUnits="userSpaceOnUse"
     x1="42"
     x2="72.138878"
     y1="118.03125"
     y2="5.5514269">
    <stop
       offset="0"
       stop-color="#084775"
       id="stop1962" />
    <stop
       offset="1"
       stop-color="#084775"
       stop-opacity="0"
       id="stop1964" />
  </linearGradient>
  <linearGradient
     gradientUnits="userSpaceOnUse"
     x1="52.126926"
     x2="52.126926"
     y1="-30.362009"
     y2="-142.43341"
     id="linearGradient1971">
    <stop
       offset="0"
       stop-color="#403a3a"
       id="stop1967" />
    <stop
       offset="1"
       stop-color="#6a5252"
       id="stop1969" />
  </linearGradient>
  <filter
     id="d">
    <feGaussianBlur
       stdDeviation="1.2346784"
       id="feGaussianBlur1973" />
  </filter>
  <clipPath
     id="e">
    <path
       d="m -23.029324,-146.61201 c -5.531616,-0.24083 -10.64527,3.53552 -12,8.96875 -2.1e-5,0.0104 -2.1e-5,0.0208 0,0.0312 l -2.8125,11.40625 h -6.03125 c -6.441349,0 -11.84375,5.4024 -11.84375,11.84375 v 8 c 0,5.84595 4.517586,10.626564 10.15625,11.5 l -4.125,16.65625 h -6.1875 c -6.441349,0 -11.84375,5.402402 -11.84375,11.84375 v 8 c 0,5.890458 4.58168,10.71459 10.28125,11.53125 l -0.84375,3.4375 c -1.553679,6.23113 2.382454,12.78725 8.625,14.34375 l 7.78125,1.9375 c 6.231123,1.55368 12.818494,-2.3825 14.375,-8.625 2.1e-5,-0.01042 2.1e-5,-0.02083 0,-0.03125 l 2.65625,-10.75 h 14.65625 l -0.78125,3.125 c -1.553681,6.23114 2.382455,12.78725 8.625,14.34375 l 7.78125,1.9375 c 6.213771,1.54936 12.804599,-2.45209 14.34375,-8.625 2.1e-5,-0.01042 2.1e-5,-0.02083 0,-0.03125 l 2.65625,-10.75 h 9.6875 c 6.44135,0 11.84375,-5.402396 11.84375,-11.84375 v -8 c 0,-6.441353 -5.4024,-11.84375 -11.84375,-11.84375 h -1.875 l 4.03125,-16.3125 h 9.84375 c 6.44135,0 11.84375,-5.402396 11.84375,-11.84375 v -8 c 0,-6.44135 -5.4024,-11.84375 -11.84375,-11.84375 h -2.03125 l 0.9375,-3.78125 c 1.55369,-6.23115 -2.3825,-12.78724 -8.625,-14.34375 l -7.78125,-1.9375 c -6.231121,-1.55367 -12.818487,2.38251 -14.375,8.625 -2.1e-5,0.0104 -2.1e-5,0.0208 0,0.0312 l -2.8125,11.40625 h -14.625 l 0.9375,-3.78125 c 1.571025,-6.30072 -2.431097,-12.79157 -8.65625,-14.34375 l -7.75,-1.9375 c -0.677154,-0.16884 -1.43324,-0.30275 -2.375,-0.34375 z m 10.03125,52.09375 h 14.625 l -4.03125,16.3125 h -14.625 z"
       id="path1976"
       inkscape:connector-curvature="0" />
  </clipPath>
  <linearGradient
     id="f"
     gradientTransform="matrix(-3.1980625,0,0,-3.2594209,118.15388,991.37507)"
     gradientUnits="userSpaceOnUse"
     x1="0"
     x2="31.942419"
     y1="294.88333"
     y2="274.79138">
    <stop
       offset="0"
       stop-color="#5499ff"
       id="stop1979" />
    <stop
       offset=".11366145"
       stop-color="#5a9cff"
       id="stop1981" />
    <stop
       offset=".20296694"
       stop-color="#80b3ff"
       id="stop1983" />
    <stop
       offset=".21468808"
       stop-color="#7aafff"
       id="stop1985" />
    <stop
       offset=".2560246"
       stop-color="#80b3ff"
       id="stop1987" />
    <stop
       offset=".5313"
       stop-color="#80b3ff"
       id="stop1989" />
    <stop
       offset=".8449"
       stop-color="#80b3ff"
       id="stop1991" />
    <stop
       offset="1"
       stop-color="#80b3ff"
       id="stop1993" />
  </linearGradient>
  <g
     id="g4872"
     transform="matrix(0.25,0,0,0.25,0,2.6074719e-5)">
    <g
       id="g2008">
      <g
         transform="translate(1.7364313e-8,-4.7375468e-6)"
         id="g1795">
        <path
           style="opacity:0.30684904;filter:url(#f-6)"
           inkscape:connector-curvature="0"
           d="m 23,9 0.04082,112 H 84.172 c 0.53,0 1.039,-0.211 1.414,-0.586 L 118.414,87.586 C 118.789,87.211 119,86.702 119,86.172 V 9 Z"
           transform="matrix(1.0416667,0,0,1.0357143,-9.958333,-3.321534)"
           id="path1152" />
        <path
           style="opacity:0.89589;filter:url(#g)"
           inkscape:connector-curvature="0"
           d="M 24.919999,10.931136 V 119.06907 l 58.676001,-1e-4 c 0.53,0 1.039,-0.211 1.414,-0.586 l 31.484,-31.765936 c 0.375,-0.375 0.586,-0.884 0.586,-1.414 V 10.931136 Z"
           transform="matrix(1.0416667,0,0,1.0357143,-9.958333,-3.321534)"
           id="path1154" />
        <path
           style="opacity:0.30684904;filter:url(#f-6)"
           inkscape:connector-curvature="0"
           d="M 23,9.9655172 23.040816,121 H 84.172 c 0.53,0 1.039,-0.211 1.414,-0.586 L 118.414,87.586 C 118.789,87.211 119,86.702 119,86.172 V 9.9655172 Z"
           transform="matrix(1.0416667,0,0,1.0357143,-9.958333,-3.321534)"
           id="path1156" />
        <path
           style="fill:url(#e-2)"
           inkscape:connector-curvature="0"
           d="m 16.000002,8 v 112 h 61.172 c 0.53,0 1.039,-0.211 1.414,-0.586 L 111.414,86.586 C 111.789,86.211 112,85.702 112,85.172 V 8 Z"
           id="path1158" />
        <path
           style="fill:url(#d-9)"
           inkscape:connector-curvature="0"
           d="m 19.678725,10.7 c -0.539276,0 -0.978723,0.440836 -0.978723,0.981818 l -0.7,105.336362 c 0,0.54197 0.439447,0.98182 0.978723,0.98182 h 57.913022 c 0.257404,0 0.509915,-0.10407 0.691957,-0.28767 L 109.71323,85.4812 C 109.89626,85.2976 110,85.045273 110,84.787055 V 10.981818 C 110,10.440836 109.56153,10 109.02128,10 Z"
           id="path1160" />
      </g>
      <g
         id="g1170"
         transform="translate(2.0173643e-6,-4.7375468e-6)">
        <path
           style="opacity:0.1;fill:url(#a-1);filter:url(#h)"
           inkscape:connector-curvature="0"
           id="path1162"
           d="M 111.414,86.586 C 111.664,86.336 85.035,85 80,85 c -1.654,0 -3,1.346 -3,3 0,5.035 1.336,31.664 1.586,31.414 z" />
        <path
           style="opacity:0.2;filter:url(#j)"
           inkscape:connector-curvature="0"
           id="path1164"
           d="M 111.414,86.586 C 111.789,86.211 89.444,86 80,86 c -1.103,0 -2,0.897 -2,2 0,9.444 0.211,31.789 0.586,31.414 z" />
        <path
           style="opacity:0.1;fill:url(#b-2);filter:url(#i)"
           inkscape:connector-curvature="0"
           id="path1166"
           d="M 111.414,86.586 C 111.653,86.347 89.807,87 80,87 c -0.553,0 -1,0.447 -1,1 0,9.807 -0.653,31.653 -0.414,31.414 z" />
        <path
           style="fill:url(#c-7)"
           inkscape:connector-curvature="0"
           id="path1168"
           d="m 78.586,119.414 c 0,0 11.914,-9.914 17.414,-15.414 5.5,-5.5 15.414,-17.414 15.414,-17.414 0,0 -21.164,1.414 -31.414,1.414 0,10.25 -1.414,31.414 -1.414,31.414 z" />
      </g>
    </g>
    <g
       id="g1215"
       transform="translate(-79.62865,-236.8761)">
      <circle
         transform="matrix(0.65842372,0,0,0.65842372,222.71127,293.75855)"
         style="opacity:0.75899999;fill:#858585;fill-opacity:1;stroke:none;stroke-width:5.90149975;stroke-linecap:square;stroke-linejoin:bevel;stroke-miterlimit:4;stroke-dasharray:none;stroke-dashoffset:0;stroke-opacity:0.73039216;filter:url(#filter16674)"
         id="circle1643"
         cx="-65.04158"
         cy="63.78297"
         r="39.506271" />
      <circle
         r="25.282183"
         cy="334.43793"
         cx="179.88635"
         id="path1582"
         style="opacity:1;fill:#844329;fill-opacity:1;stroke:none;stroke-width:3.77668643;stroke-linecap:square;stroke-linejoin:bevel;stroke-miterlimit:4;stroke-dasharray:none;stroke-dashoffset:0;stroke-opacity:0.73039216" />
      <circle
         transform="matrix(0.65842372,0,0,0.65842372,222.71127,293.75855)"
         style="opacity:1;fill:url(#radialGradient1600);fill-opacity:1;stroke:none;stroke-width:5.44624233;stroke-linecap:square;stroke-linejoin:bevel;stroke-miterlimit:4;stroke-dasharray:none;stroke-dashoffset:0;stroke-opacity:0.73039216;filter:url(#filter1639)"
         id="circle1584"
         cx="-65.04158"
         cy="61.78297"
         r="36.458652" />
      <g
         transform="matrix(0.46557588,-0.46557588,0.46557588,0.46557588,160.06463,296.97986)"
         id="g1633">
        <path
           inkscape:connector-curvature="0"
           id="path1613"
           d="m -24.261029,43.91386 v 15.625872 h -15.625873 v 7.812937 h 15.625873 v 15.625872 h 7.812936 V 67.352669 H -0.82221985 V 59.539732 H -16.448093 V 43.91386 Z"
           style="opacity:1;fill:#742424;fill-opacity:1;stroke:none;stroke-width:5.15079451;stroke-linecap:square;stroke-linejoin:bevel;stroke-miterlimit:4;stroke-dasharray:none;stroke-dashoffset:0;stroke-opacity:0.73039216;filter:url(#filter1627)"
           transform="matrix(1.2,0,0,1.2,4.0709124,-12.585841)" />
        <path
           style="opacity:1;fill:#ffffff;fill-opacity:1;stroke:none;stroke-width:6.1809535;stroke-linecap:square;stroke-linejoin:bevel;stroke-miterlimit:4;stroke-dasharray:none;stroke-dashoffset:0;stroke-opacity:0.73039216"
           d="m -23.628113,38.076173 v 18.751046 h -18.751048 v 9.375524 h 18.751048 V 84.95379 h 9.375523 V 66.202743 H 4.498457 V 56.827219 H -14.25259 V 38.076173 Z"
           id="rect1608"
           inkscape:connector-curvature="0" />
      </g>
      <ellipse
         ry="15.43148"
         rx="19.079889"
         cy="326.83899"
         cx="179.88635"
         id="circle1602"
         style="opacity:1;fill:url(#linearGradient1606);fill-opacity:1;stroke:none;stroke-width:2.5632329;stroke-linecap:square;stroke-linejoin:bevel;stroke-miterlimit:4;stroke-dasharray:none;stroke-dashoffset:0;stroke-opacity:0.73039216" />
    </g>
  </g>
</svg>
